symbolic/32x32/places/folder-brown-java.svg

<svg xmlns="http://www.w3.org/2000/svg" width="32" height="32" version="1">
 <rect style="opacity:0.2" width="28" height="18" x="2" y="11" rx="1.4" ry="1.4"/>
 <path style="fill:#957552" d="M 2,22.6 C 2,23.376 2.6244,24 3.4,24 H 28.6 C 29.376,24 30,23.376 30,22.6 V 7.4 C 30,6.6244 29.376,6 28.6,6 H 16 C 13.9,6 13.2,3 11.1,3 H 3.4 C 2.6244,3 2,3.6244 2,4.4"/>
 <rect style="opacity:0.2" width="28" height="18" x="2" y="9" rx="1.4" ry="1.4"/>
 <rect style="fill:#e4e4e4" width="24" height="11" x="4" y="8" rx="1.4" ry="1.4"/>
 <rect style="fill:#ae8e6c" width="28" height="18" x="2" y="10" rx="1.4" ry="1.4"/>
 <path style="opacity:0.1;fill:#ffffff" d="M 3.4004,3 C 2.6248,3 2,3.6248 2,4.4004 V 5.4004 C 2,4.6248 2.6248,4 3.4004,4 H 11.1 C 13.2,4 13.9,7 16,7 H 28.6 C 29.375,7 30,7.6248 30,8.4004 V 7.4004 C 30,6.6248 29.375,6 28.6,6 H 16 C 13.9,6 13.2,3 11.1,3 Z"/>
 <path style="fill:#3d3226" d="M 15.008,13 C 15.008,13 15.585,13.353 15.178,14.281 14.562,15.68 15.746,16 15.746,16 15.746,16 15.37,15.672 15.871,14.518 16.425,13.238 15.008,13 15.008,13 Z M 16.6,14.928 C 16.6,14.928 15.551,15.393 16.227,16.666 16.673,17.509 16.178,17.928 16.178,17.928 16.178,17.928 17.445,17.51 16.834,16.346 16.285,15.293 16.6,14.928 16.6,14.928 Z M 13.336,15 C 13.336,15 12.585,15.799 13.328,16.781 13.82,17.435 13.498,18 13.498,18 13.498,18 14.429,17.175 13.756,16.271 13.148,15.457 13.336,15 13.336,15 Z M 13.498,18 H 11 L 12.5,24 H 18 L 18.34,23.016 C 18.506,23.057 18.678,23.086 18.857,23.086 20.041,23.086 21,22.326 21,21.143 21,20.138 20.307,19.303 19.375,19.07 L 19.572,18 Z M 19.203,19.76 A 0.71429,1.4286 15 0 1 19.227,19.764 0.71429,1.4286 15 0 1 19.547,21.328 0.71429,1.4286 15 0 1 18.512,22.527 Z"/>
</svg>

<svg xmlns="http://www.w3.org/2000/svg" width="32" height="32" version="1"><rect style="opacity:.2" width="28" height="18" x="2" y="11" rx="1.4" ry="1.4"/><path style="fill:#957552" d="M2 22.6c0 .776.624 1.4 1.4 1.4h25.2c.776 0 1.4-.624 1.4-1.4V7.4c0-.776-.624-1.4-1.4-1.4H16c-2.1 0-2.8-3-4.9-3H3.4C2.624 3 2 3.624 2 4.4"/><rect style="opacity:.2" width="28" height="18" x="2" y="9" rx="1.4" ry="1.4"/><rect style="fill:#e4e4e4" width="24" height="11" x="4" y="8" rx="1.4" ry="1.4"/><rect style="fill:#ae8e6c" width="28" height="18" x="2" y="10" rx="1.4" ry="1.4"/><path style="opacity:.1;fill:#fff" d="M3.4 3C2.625 3 2 3.625 2 4.4v1C2 4.625 2.625 4 3.4 4h7.7c2.1 0 2.8 3 4.9 3h12.6c.775 0 1.4.625 1.4 1.4v-1c0-.775-.625-1.4-1.4-1.4H16c-2.1 0-2.8-3-4.9-3z"/><path style="fill:#3d3226" d="M15.008 13s.577.353.17 1.281c-.616 1.399.568 1.719.568 1.719s-.376-.328.125-1.482c.554-1.28-.863-1.518-.863-1.518zm1.592 1.928s-1.049.465-.373 1.738c.446.843-.049 1.262-.049 1.262s1.267-.418.656-1.582c-.549-1.053-.234-1.418-.234-1.418zM13.336 15s-.751.799-.008 1.781c.492.654.17 1.219.17 1.219s.931-.825.258-1.729c-.608-.814-.42-1.271-.42-1.271zm.162 3H11l1.5 6H18l.34-.984c.166.041.338.07.517.07 1.184 0 2.143-.76 2.143-1.943 0-1.005-.693-1.84-1.625-2.073l.197-1.07zm5.705 1.76a.714 1.429 15 0 1 .024.004.714 1.429 15 0 1 .32 1.564.714 1.429 15 0 1-1.035 1.199z"/></svg>
